X: 172
T:the Duchess D. of Richmond's Strathspey
B:William Marshall's Scottish Airs, Melodies, Strathspeys, Reels &c (1822)
C:William Marshall
L:1/8
M:C
O:Scotland
R:Strathspey
Z:Clark Bernst + Richard Robinson
%%Page:37 - 1
F:http://richardrobinson.tunebook.org.uk/tune/4015
%%TBL:{"version":1,"type":"tune","id":"4015"}
K:E
%%staves {1 2}
V:1
G |\
~E2 (BG) B<BB>G | (B/d/e/f/) (a/g/)f/e/ fFFG | \
~E2 (BG) B<BB>a | (a/g/)f/e/ (g/f/)e/d/ eEE :|
a | \
!trill!g>f e<B egeB | c/d/e/f/ e/d/c/B/ c<f-f>!wedge!a | \
!trill!g>f e<B eg{B}bB | ~c>B c/B/A/G/ Be-ea |
!trill!g>f e<B egeB | c/d/e/f/ e/d/c/B/ c<f-f>!wedge!a | \
~g<b(f<g) e<g c>e | ~B>e {g}fe/f/ gee |]
V:2 middle=d clef=bass
L:1/4
z/ | eeee | eeBB | eeee | bbee/ :| \
z/ | ee'eg | agab | eeeg | abee | ee'eg | agab | ebc'a | bBee/ |]

